!!!!SEGMENT: pl-wtm--r-423-m_moniuszko-stanislaw--chant-sans-paroles.krn
!!!cenid: 18xx:3035
!!!COM: Moniuszko, Stanisław
!!!COM-rismID: pe30008351
!!!CDT: 1819/05/05-1872/06/04
!!!CNT: Polish
!!!OTL: Chant sans paroles
!!!PDT:
!!!AGN: Secular
!!!SMS-siglum: PL-Wtm
!!!SMS-shelfmark: R 423/M
!!!SMS-shelfwork: W
!!!SMS-variant:
!!!SMS-altvar:
!!!NIFC-rismSourceID: 1001088026
!!!NIFC-islandoraID:
!!!URL-pdf-islandora:
!!!URL-scan:
!!!ONB-nifc:
!!!OMD: Andantino.
!!!AIN: 2 empty
!!!key:
**kern	**kern	**dynam	**fing
*part2	*part1	*part1	*
*staff2	*staff1	*	*
*Iempty	*Iempty	*	*
*I"	*I"	*	*
*>[A,A,B]	*>[A,A,B]	*	*
*clefF4	*clefG2	*	*
*k[]	*k[]	*	*
*A:	*A:	*	*
*M6/8	*M6/8	*	*
=1	=1	=1	=1
*>A	*>A	*	*
*^	*^	*	*
*all\right	*all\right	*	*	*	*
*	*2\right	*	*	*	*
!	!	!	!	!LO:DY:t=p.	!
[<4.E/	2.AA\	(8cc/L	8c\L	p	.
.	.	8b/	8e\	.	.
.	.	8a/J	8c\J	.	.
4.G#X/ 4.E/_<	.	4b/)	8d\L	.	.
.	.	.	8e\	.	.
.	.	8b/	8d\J	.	.
=2	=2	=2	=2	=2	=2
4.A/ 4.E/_<	2.AA\	(8cc/L	8c\L	.	.
.	.	8b/	8e\	.	.
.	.	8a/J	8c\J	.	.
4.G#X/ 4.E/]	.	4b/)	8d\L	.	.
.	.	.	8e\	.	.
.	.	8b/	8d\J	.	.
*v	*v	*	*	*	*
=3	=3	=3	=3	=3
*	*	*	*^	*
!	!	!	!LO:HP:a	!	!
(8E\L 8AA\	(<8cc/L	8c\	<	.	.
[<8A\J	8dd/	4e\	.	.	.
8c\ 8A\])	8ee/J)	.	[	.	.
!	!	!LO:N:vis=4	!LO:HP:a	!	!
4.B\ 4.G\	(4ee/	[4.e\	>	sf	.
.	8b/)	.	]]	.	.
*	*	*	*v	*v	*
=4	=4	=4	=4	=4
4.B\ 4.F\	(8a/L	4e\]	.	.
.	8g#X/	.	.	.
.	8a/J	8d#X\	.	.
4.G#X\ 4.E;\	4b;/	4.dn\	.	.
.	8b#/)	.	.	.
*	*v	*v	*	*
=5	=5	=5	=5
*k[f#c#g#]	*k[f#c#g#]	*	*
*^	*^	*	*
!	!	!LO:TX:t=P:problem=znaki[f# cc# g#]	!	!	!
!LO:TX:t=P:problem=brak początku łuku	!	!LO:TX:a:i:t=un poco piu moſso	!	!	!
(<8AA/L	4.AA\	(8cc#/L	4.c#\	.	4
!	!	!	!	!LO:HP:a	!
8E/	.	8dd/	.	>	.
8A/J	.	8cc#/J	.	.	.
8BB/	4BB\	4b/	4d\	.	5
4E/	.	.	.	.	.
.	8C#\	8a/	8e\	]]	.
!!LO:LB:g=original
=6	=6	=6	=6	=6	=6
8D/L	4.D\	8g#/L	8e\	.	.
8F#/	.	8.f#/	4d\	.	.
8A/J	.	.	.	.	.
.	.	16g#/Jk	.	.	.
8C#/L	4.C#\	8a/L	4.e\	.	.
8E/	.	8b/	.	.	.
8A/J	.	8cc#/J	.	.	.
=7	=7	=7	=7	=7	=7
8BB/L	4.BB\	8dd/L	4.d\	.	.
!	!	!	!LO:TX:b:t=cres-cen-do:ext2=cd:problem=dynamics with extension lines	!LO:HP:t=cres-cen-do	!
8F#/	.	8ee/	.	<	.
8B/J	.	8dd/J	.	.	.
8C#/	4C#\	4cc#/	4e\	.	.
4F#/	.	.	.	.	.
.	8D\	8b/	8f#\	.	.
=8	=8	=8	=8	=8	=8
8E/L	4.E\	8a/L	8f#\	.	.
8G#/	.	8g#/	4e\	.	.
8B/J	.	8a/J	.	.	.
8D/L	4.D\	8b/L	4.g#\ 4.e\	.	.
8E/	.	8cc#/	.	[	.
8B/J	.	8dd/J	.	.	.
=9	=9	=9	=9	=9	=9
*	*	*	*^	*	*
!	!	!LO:TX:a:i:t=alargando.	!	!LO:TX:b:t=cres-cen-do:ext2=cd:problem=dynamics with extension lines	!LO:HP:t=cres-cen-do	!
8C#/L	4.C#\	8ee/L)	8e\L	4.a/	<	.
8A/	.	8.ff#/	8.f#\	.	.	.
8E/J	.	.	.	.	.	.
.	.	16ee/Jk	16e\Jk	.	.	.
8GG#/L	4.GG#\	4ee^/	4.b\ 4.e\	4.ryy	.	.
8E/	.	.	.	.	.	.
8B/J	.	8dd/	.	.	.	.
*	*	*	*v	*v	*	*
=10	=10	=10	=10	=10	=10
8A/L	4.AA\	8cc#/L	4e\	.	.
.	.	8qee/	.	.	.
8E/	.	8.dd/	.	.	.
8A/J	.	.	8a\	.	.
.	.	16cc#/Jk	.	.	.
8ryy	4.E#X\)	4cc#^/	(>8g#\L	.	.
4ryy	.	.	8c#\)	[	.
.	.	8cc#/	8b\J 8g#\	.	.
*v	*v	*	*	*	*
!!LO:LB:g=original
=11	=11	=11	=11	=11
.	8qdd/	.	.	.
(4.F#\	(8cc#/L	8a\L	f	.
.	8b/	8g#\	.	.
.	8cc#/J)	8a\J	.	.
4A\ 4E\ 4C#\	8.ee^/L	(>8a\L	.	.
.	.	8e\	.	.
.	16dd/K	.	.	.
8D/	8cc#/J 8a/	8f#\J)	.	.
=12	=12	=12	=12	=12
!	!LO:TX:a:i:t=riten.	!	!LO:HP:t=dimin	!
4.E\	([4.cc#/ [4.a/	8e\L	>	.
.	.	8f#\	.	.
.	.	8e\J	.	.
4BB/	4cc#/] 4a/]	8d#X\L	.	.
.	.	8e\	.	.
8E\)	8b/ 8g#/	8dn\J	.	.
=13	=13	=13	=13	=13
!	!LO:TX:a:i:t=a tempo 1mo	!	!LO:DY:t=p.	!
[4.E/ 4.AA/	4.a/)	(>8c#\L	p	.
.	.	8e\	.	.
.	.	8a\J	.	.
8E/] 8AA/	4.ryy	8cc#\L	.	.
8ryy	.	8ee\	.	.
8r	.	8dd\J	.	.
*	*v	*v	*	*
=14	=14	=14	=14
2.r	8cc#/L	.	.
.	8b/	.	.
.	8a/J	.	.
.	8g#/L	.	.
.	8qb/	.	.
.	8.a^/	.	.
.	16c#/Jk)	.	.
=15	=15	=15	=15
*	*^	*	*
4r	[2.e/	4r	.	.
8r	.	8r	.	.
4A\ 4E\	.	(>4c#\	.	.
8A\ 8E\	.	8cn\)	.	.
=16	=16	=16	=16	=16
*^	*	*^	*	*
*	*	*	*2\right	*	*	*
(4.A/	2.E\	4e/]	2.B\	4.ryy	.	.
.	.	(8e/	.	.	.	.
.	.	8qgn/	.	.	.	.
4.G#/)	.	4fn/	.	4.d\	.	.
.	.	8e/)	.	.	.	.
*v	*v	*	*	*	*	*
*	*	*v	*v	*	*
!!LO:LB:g=original
=17:|!	=17:|!	=17:|!	=17:|!	=17:|!
*>B	*>B	*>B	*>B	*
[2.A\ [2.E\ [2.AA\	([4.cc#X/	2.c#X\	.	.
.	8cc#/L]	.	.	.
.	8b/	.	.	.
.	8a/J	.	.	.
*	*v	*v	*	*
=18	=18	=18	=18
(4.A\] 4.E\_ 4.AA\_	8e/L	.	.
.	8c#X/	.	.
.	8B/J	.	.
4E\] 4AA\])	4A/)	.	.
8F#\ 8D\	8d/ 8A/	.	.
=19	=19	=19	=19
2.E\ 2.AA;\	2.c#X/ 2.A;/	.	.
==	==	==	==
*-	*-	*-	*-
!!!system-decoration: {(s1,s2)}
!!!RDF**kern: > = above
!!!RDF**kern: < = below
!!!ENC: Andrzej Gręziak
!!!END: 2021-09-07
!!!EED: Andrzej Borzym
!!!EEV: 2021-09-23
